exported-svg/hexagon.svg

<svg height="24" viewBox="0 0 24 24" width="24" xmlns="http://www.w3.org/2000/svg"><path d="m22 8.49808793c-.0009154-.89276084-.4772902-1.7168891-1.2500003-2.16301285l-7.0019302-4.00110872c-.7715722-.44547312-1.7245668-.44547312-2.4980695.00110887l-6.99806947 3.99889113c-.77464037.44723247-1.25101508 1.27136073-1.25193053 2.16360872v8.00051282c.00091545.8927609.47729016 1.7168891 1.25000026 2.1630129l7.00193024 4.0011087c.7715722.4454731 1.7245668.4454731 2.4980695-.0011089l6.9980695-3.9988911c.7746403-.4472325 1.2510151-1.2713607 1.2519305-2.1636087zm-1.7499997 9.29698717-6.9980698 3.9988913c-.4660321.269058-1.0378289.269058-1.5019305.0011088l-7.00193053-4.0011088c-.46169579-.2665656-.74752062-.7610425-.74806973-1.2963913v-7.99948717c.00054911-.53483594.28637394-1.02931289.75-1.29698715l6.99806976-3.99889128c.4660321-.26905806 1.0378289-.26905806 1.5019305-.00110887l7.0019305 4.00110887c.4616958.26656554.7475207.76104249.7480692 1.29639128v7.99948712c-.0005485.534836-.2863734 1.0293129-.7499994 1.2969872z"/></svg>

<?xml version="1.0" encoding="UTF-8"?>
<svg width="24px" height="24px" viewBox="0 0 24 24" version="1.1" xmlns="http://www.w3.org/2000/svg" xmlns:xlink="http://www.w3.org/1999/xlink">
    <!-- Generator: Sketch 55.2 (78181) - https://sketchapp.com -->
    <title>hexagon</title>
    <desc>Created with Sketch.</desc>
    <g id="hexagon" stroke="none" stroke-width="1" fill="none" fill-rule="evenodd">
        <path d="M22,8.49808793 C21.9990846,7.60532709 21.5227098,6.78119883 20.7499997,6.33507508 L13.7480695,2.33396636 C12.9764973,1.88849324 12.0235027,1.88849324 11.25,2.33507523 L4.25193053,6.33396636 C3.47729016,6.78119883 3.00091545,7.60532709 3,8.49757508 L3,16.4980879 C3.00091545,17.3908488 3.47729016,18.214977 4.25000026,18.6611008 L11.2519305,22.6622095 C12.0235027,23.1076826 12.9764973,23.1076826 13.75,22.6611006 L20.7480695,18.6622095 C21.5227098,18.214977 21.9990846,17.3908488 22,16.4986008 L22,8.49808793 Z M20.2500003,17.7950751 L13.2519305,21.7939664 C12.7858984,22.0630244 12.2141016,22.0630244 11.75,21.7950752 L4.74806947,17.7939664 C4.28637368,17.5274008 4.00054885,17.0329239 3.99999974,16.4975751 L3.99999974,8.49808793 C4.00054885,7.96325199 4.28637368,7.46877504 4.74999974,7.20110078 L11.7480695,3.2022095 C12.2141016,2.93315144 12.7858984,2.93315144 13.25,3.20110063 L20.2519305,7.2022095 C20.7136263,7.46877504 20.9994512,7.96325199 20.9999997,8.49860078 L20.9999997,16.4980879 C20.9994512,17.0329239 20.7136263,17.5274008 20.2500003,17.7950751 Z" id="Path" fill="#000000" fill-rule="nonzero"></path>
    </g>
</svg>
